public/images/linkedin.svg

<svg fill="#52525b" height="800" stroke="#52525b" viewBox="-143 145 512 512" width="800" xmlns="http://www.w3.org/2000/svg"><path d="m113 145c-141.4 0-256 114.6-256 256s114.6 256 256 256 256-114.6 256-256-114.6-256-256-256zm-71.6 363.1h-49.9v-159.7h49.9zm-26.3-179.7h-.4c-18.1 0-29.8-12.2-29.8-27.7 0-15.8 12.1-27.7 30.5-27.7s29.7 11.9 30.1 27.7c.1 15.4-11.6 27.7-30.4 27.7zm225.9 179.7h-56.6v-82.6c0-21.6-8.8-36.4-28.3-36.4-14.9 0-23.2 10-27 19.6-1.4 3.4-1.2 8.2-1.2 13.1v86.3h-56.1s.7-146.4 0-159.7h56.1v25.1c3.3-11 21.2-26.6 49.8-26.6 35.5 0 63.3 23 63.3 72.4z"/></svg>

<!DOCTYPE svg PUBLIC "-//W3C//DTD SVG 1.1//EN" "http://www.w3.org/Graphics/SVG/1.1/DTD/svg11.dtd">
<!-- Uploaded to: SVG Repo, www.svgrepo.com, Transformed by: SVG Repo Mixer Tools -->
<svg fill="#52525b" height="800px" width="800px" version="1.1" id="Layer_1" xmlns="http://www.w3.org/2000/svg" xmlns:xlink="http://www.w3.org/1999/xlink" viewBox="-143 145 512 512" xml:space="preserve" stroke="#52525b">
<g id="SVGRepo_bgCarrier" stroke-width="0"/>
<g id="SVGRepo_tracerCarrier" stroke-linecap="round" stroke-linejoin="round"/>
<g id="SVGRepo_iconCarrier"> <path d="M113,145c-141.4,0-256,114.6-256,256s114.6,256,256,256s256-114.6,256-256S254.4,145,113,145z M41.4,508.1H-8.5V348.4h49.9 V508.1z M15.1,328.4h-0.4c-18.1,0-29.8-12.2-29.8-27.7c0-15.8,12.1-27.7,30.5-27.7c18.4,0,29.7,11.9,30.1,27.7 C45.6,316.1,33.9,328.4,15.1,328.4z M241,508.1h-56.6v-82.6c0-21.6-8.8-36.4-28.3-36.4c-14.9,0-23.2,10-27,19.6 c-1.4,3.4-1.2,8.2-1.2,13.1v86.3H71.8c0,0,0.7-146.4,0-159.7h56.1v25.1c3.3-11,21.2-26.6,49.8-26.6c35.5,0,63.3,23,63.3,72.4V508.1z "/> </g>
</svg>
